src/icons/outline/symbols/link.svg

<svg width="24" height="24" viewBox="0 0 24 24" fill="none" xmlns="http://www.w3.org/2000/svg">
<g clip-path="url(#clip0_4923_322)">
<path d="M7.21289 6.49988C8.58911 6.49988 9.89598 7.1673 10.8135 8.33289C11.0927 8.68371 11.0621 9.21621 10.7529 9.53308C10.4438 9.83825 9.97542 9.8154 9.69629 9.46472C9.06801 8.66129 8.16027 8.19714 7.21289 8.19714H5.84668C4.00176 8.19721 2.49609 9.9063 2.49609 11.9999C2.49609 14.0935 4.00176 15.8025 5.84668 15.8026H7.21289C8.16031 15.8026 9.05824 15.3385 9.68652 14.535C9.96568 14.1843 10.434 14.1614 10.7432 14.4667C11.0523 14.7835 11.0829 15.316 10.8037 15.6669C9.88621 16.8325 8.57916 17.4999 7.21289 17.4999H5.84668C3.17402 17.4998 1 15.0328 1 11.9999C1 8.967 3.17402 6.49994 5.84668 6.49988H7.21289Z" fill="#3C3B44"/>
<path d="M18.1533 6.49988C20.8259 6.50002 23 8.96704 23 11.9999C23 15.0327 20.8259 17.4997 18.1533 17.4999H16.7871C15.4109 17.4999 14.104 16.8324 13.1865 15.6669C12.9073 15.3161 12.937 14.7836 13.2461 14.4667C13.5553 14.1611 14.0245 14.1842 14.3037 14.535C14.932 15.3384 15.8398 15.8026 16.7871 15.8026H18.1533C19.9982 15.8025 21.5039 14.0934 21.5039 11.9999C21.5039 9.97174 20.0908 8.30432 18.3252 8.20203L18.1533 8.19714H16.7871C15.8397 8.19714 14.9418 8.66126 14.3135 9.46472C14.0443 9.81542 13.566 9.8496 13.2568 9.53308C12.9477 9.22753 12.9171 8.68371 13.1963 8.33289C14.1038 7.16727 15.4209 6.49988 16.7871 6.49988H18.1533Z" fill="#3C3B44"/>
<path d="M16.7871 11.1512C17.196 11.1512 17.5352 11.5359 17.5352 11.9999C17.535 12.4637 17.1959 12.8485 16.7871 12.8485H7.21289C6.80429 12.8483 6.46599 12.4636 6.46582 11.9999C6.46582 11.536 6.80419 11.1515 7.21289 11.1512H16.7871Z" fill="#3C3B44"/>
</g>
<defs>
<clipPath id="clip0_4923_322">
<rect width="24" height="24" fill="white"/>
</clipPath>
</defs>
</svg>

<svg xmlns="http://www.w3.org/2000/svg" width="24" height="24" fill="none" viewBox="0 0 24 24"><g clip-path="url(#a)"><path fill="currentColor" d="M7.213 6.5c1.376 0 2.683.667 3.6 1.833.28.35.25.883-.06 1.2a.692.692 0 0 1-1.057-.068C9.068 8.66 8.16 8.197 7.213 8.197H5.847c-1.845 0-3.35 1.71-3.35 3.803s1.505 3.803 3.35 3.803h1.366c.947 0 1.845-.465 2.474-1.268a.692.692 0 0 1 1.056-.068c.31.316.34.849.06 1.2-.917 1.165-2.224 1.833-3.59 1.833H5.847C3.174 17.5 1 15.033 1 12s2.174-5.5 4.847-5.5zm10.94 0C20.826 6.5 23 8.967 23 12s-2.174 5.5-4.847 5.5h-1.366c-1.376 0-2.683-.668-3.6-1.833a.93.93 0 0 1 .06-1.2.693.693 0 0 1 1.057.068c.628.803 1.536 1.268 2.483 1.268h1.366c1.845 0 3.35-1.71 3.35-3.803s-1.505-3.803-3.35-3.803h-1.366c-.947 0-1.845.464-2.473 1.268a.685.685 0 0 1-1.057.068c-.31-.305-.34-.85-.06-1.2.907-1.166 2.224-1.833 3.59-1.833zm-1.366 4.651c.409 0 .748.385.748.849s-.34.848-.748.848H7.213c-.409 0-.747-.384-.747-.848s.338-.848.747-.849z"/></g><defs><clipPath id="a"><path fill="currentColor" d="M0 0h24v24H0z"/></clipPath></defs></svg>
